presets/02-Exposure_-0.70.lrtemplate
s = {
	internalName = "02-Exposure -0.70",
	title = "02-Exposure 03 [-0.70]",
	type = "Develop",
	value = {
		settings = {
			Exposure2012 = -0.70,
			ProcessVersion = "10.0",
		},
	},
	version = 0,
}
