presets/02-Exposure_0.30.lrtemplate
s = {
	internalName = "02-Exposure 0.30",
	title = "02-Exposure 13 [0.30]",
	type = "Develop",
	value = {
		settings = {
			Exposure2012 = 0.30,
			ProcessVersion = "10.0",
		},
	},
	version = 0,
}
