presets/02-Exposure_-0.90.lrtemplate
s = {
	internalName = "02-Exposure -0.90",
	title = "02-Exposure 01 [-0.90]",
	type = "Develop",
	value = {
		settings = {
			Exposure2012 = -0.90,
			ProcessVersion = "10.0",
		},
	},
	version = 0,
}
