presets/02-Exposure_-0.10.lrtemplate
s = {
	internalName = "02-Exposure -0.10",
	title = "02-Exposure 09 [-0.10]",
	type = "Develop",
	value = {
		settings = {
			Exposure2012 = -0.10,
			ProcessVersion = "10.0",
		},
	},
	version = 0,
}
