presets/02-Exposure_-0.20.lrtemplate
s = {
	internalName = "02-Exposure -0.20",
	title = "02-Exposure 08 [-0.20]",
	type = "Develop",
	value = {
		settings = {
			Exposure2012 = -0.20,
			ProcessVersion = "10.0",
		},
	},
	version = 0,
}
