presets/02-Exposure_-0.60.lrtemplate
s = {
	internalName = "02-Exposure -0.60",
	title = "02-Exposure 04 [-0.60]",
	type = "Develop",
	value = {
		settings = {
			Exposure2012 = -0.60,
			ProcessVersion = "10.0",
		},
	},
	version = 0,
}
