presets/03-Contrast_-70.lrtemplate
s = {
	internalName = "03-Contrast -70",
	title = "03-Contrast 03 [-70]",
	type = "Develop",
	value = {
		settings = {
			Contrast2012 = -70,
			ProcessVersion = "10.0",
		},
	},
	version = 0,
}
