presets/03-Contrast_10.lrtemplate
s = {
	internalName = "03-Contrast 10",
	title = "03-Contrast 11 [10]",
	type = "Develop",
	value = {
		settings = {
			Contrast2012 = 10,
			ProcessVersion = "10.0",
		},
	},
	version = 0,
}
