presets/03-Contrast_90.lrtemplate
s = {
	internalName = "03-Contrast 90",
	title = "03-Contrast 19 [90]",
	type = "Develop",
	value = {
		settings = {
			Contrast2012 = 90,
			ProcessVersion = "10.0",
		},
	},
	version = 0,
}
