presets/03-Contrast_20.lrtemplate
s = {
	internalName = "03-Contrast 20",
	title = "03-Contrast 12 [20]",
	type = "Develop",
	value = {
		settings = {
			Contrast2012 = 20,
			ProcessVersion = "10.0",
		},
	},
	version = 0,
}
