presets/03-Contrast_-20.lrtemplate
s = {
	internalName = "03-Contrast -20",
	title = "03-Contrast 08 [-20]",
	type = "Develop",
	value = {
		settings = {
			Contrast2012 = -20,
			ProcessVersion = "10.0",
		},
	},
	version = 0,
}
