presets/03-Contrast_-80.lrtemplate
s = {
	internalName = "03-Contrast -80",
	title = "03-Contrast 02 [-80]",
	type = "Develop",
	value = {
		settings = {
			Contrast2012 = -80,
			ProcessVersion = "10.0",
		},
	},
	version = 0,
}
