presets/03-Contrast_-10.lrtemplate
s = {
	internalName = "03-Contrast -10",
	title = "03-Contrast 09 [-10]",
	type = "Develop",
	value = {
		settings = {
			Contrast2012 = -10,
			ProcessVersion = "10.0",
		},
	},
	version = 0,
}
