presets/03-Contrast_-40.lrtemplate
s = {
	internalName = "03-Contrast -40",
	title = "03-Contrast 06 [-40]",
	type = "Develop",
	value = {
		settings = {
			Contrast2012 = -40,
			ProcessVersion = "10.0",
		},
	},
	version = 0,
}
