presets/03-Contrast_-90.lrtemplate
s = {
	internalName = "03-Contrast -90",
	title = "03-Contrast 01 [-90]",
	type = "Develop",
	value = {
		settings = {
			Contrast2012 = -90,
			ProcessVersion = "10.0",
		},
	},
	version = 0,
}
