presets/04-Highlights_20.lrtemplate
s = {
	internalName = "04-Highlights 20",
	title = "04-Highlights 12 [20]",
	type = "Develop",
	value = {
		settings = {
			Highlights2012 = 20,
			ProcessVersion = "10.0",
		},
	},
	version = 0,
}
