presets/04-Highlights_40.lrtemplate
s = {
	internalName = "04-Highlights 40",
	title = "04-Highlights 14 [40]",
	type = "Develop",
	value = {
		settings = {
			Highlights2012 = 40,
			ProcessVersion = "10.0",
		},
	},
	version = 0,
}
