presets/04-Highlights_-80.lrtemplate
s = {
	internalName = "04-Highlights -80",
	title = "04-Highlights 02 [-80]",
	type = "Develop",
	value = {
		settings = {
			Highlights2012 = -80,
			ProcessVersion = "10.0",
		},
	},
	version = 0,
}
