presets/04-Highlights_-40.lrtemplate
s = {
	internalName = "04-Highlights -40",
	title = "04-Highlights 06 [-40]",
	type = "Develop",
	value = {
		settings = {
			Highlights2012 = -40,
			ProcessVersion = "10.0",
		},
	},
	version = 0,
}
