presets/04-Highlights_-10.lrtemplate
s = {
	internalName = "04-Highlights -10",
	title = "04-Highlights 09 [-10]",
	type = "Develop",
	value = {
		settings = {
			Highlights2012 = -10,
			ProcessVersion = "10.0",
		},
	},
	version = 0,
}
