presets/04-Highlights_-30.lrtemplate
s = {
	internalName = "04-Highlights -30",
	title = "04-Highlights 07 [-30]",
	type = "Develop",
	value = {
		settings = {
			Highlights2012 = -30,
			ProcessVersion = "10.0",
		},
	},
	version = 0,
}
