presets/05-Shadows_60.lrtemplate
s = {
	internalName = "05-Shadows 60",
	title = "05-Shadows 16 [60]",
	type = "Develop",
	value = {
		settings = {
			Shadows2012 = 60,
			ProcessVersion = "10.0",
		},
	},
	version = 0,
}
