presets/05-Shadows_50.lrtemplate
s = {
	internalName = "05-Shadows 50",
	title = "05-Shadows 15 [50]",
	type = "Develop",
	value = {
		settings = {
			Shadows2012 = 50,
			ProcessVersion = "10.0",
		},
	},
	version = 0,
}
