presets/05-Shadows_-30.lrtemplate
s = {
	internalName = "05-Shadows -30",
	title = "05-Shadows 07 [-30]",
	type = "Develop",
	value = {
		settings = {
			Shadows2012 = -30,
			ProcessVersion = "10.0",
		},
	},
	version = 0,
}
