presets/05-Shadows_-20.lrtemplate
s = {
	internalName = "05-Shadows -20",
	title = "05-Shadows 08 [-20]",
	type = "Develop",
	value = {
		settings = {
			Shadows2012 = -20,
			ProcessVersion = "10.0",
		},
	},
	version = 0,
}
