presets/05-Shadows_-60.lrtemplate
s = {
	internalName = "05-Shadows -60",
	title = "05-Shadows 04 [-60]",
	type = "Develop",
	value = {
		settings = {
			Shadows2012 = -60,
			ProcessVersion = "10.0",
		},
	},
	version = 0,
}
