presets/05-Shadows_-40.lrtemplate
s = {
	internalName = "05-Shadows -40",
	title = "05-Shadows 06 [-40]",
	type = "Develop",
	value = {
		settings = {
			Shadows2012 = -40,
			ProcessVersion = "10.0",
		},
	},
	version = 0,
}
