presets/05-Shadows_-80.lrtemplate
s = {
	internalName = "05-Shadows -80",
	title = "05-Shadows 02 [-80]",
	type = "Develop",
	value = {
		settings = {
			Shadows2012 = -80,
			ProcessVersion = "10.0",
		},
	},
	version = 0,
}
