presets/05-Shadows_10.lrtemplate
s = {
	internalName = "05-Shadows 10",
	title = "05-Shadows 11 [10]",
	type = "Develop",
	value = {
		settings = {
			Shadows2012 = 10,
			ProcessVersion = "10.0",
		},
	},
	version = 0,
}
