presets/05-Shadows_-90.lrtemplate
s = {
	internalName = "05-Shadows -90",
	title = "05-Shadows 01 [-90]",
	type = "Develop",
	value = {
		settings = {
			Shadows2012 = -90,
			ProcessVersion = "10.0",
		},
	},
	version = 0,
}
