presets/06-Whites_80.lrtemplate
s = {
	internalName = "06-Whites 80",
	title = "06-Whites 18 [80]",
	type = "Develop",
	value = {
		settings = {
			Whites2012 = 80,
			ProcessVersion = "10.0",
		},
	},
	version = 0,
}
