presets/06-Whites_70.lrtemplate
s = {
	internalName = "06-Whites 70",
	title = "06-Whites 17 [70]",
	type = "Develop",
	value = {
		settings = {
			Whites2012 = 70,
			ProcessVersion = "10.0",
		},
	},
	version = 0,
}
