presets/06-Whites_-70.lrtemplate
s = {
	internalName = "06-Whites -70",
	title = "06-Whites 03 [-70]",
	type = "Develop",
	value = {
		settings = {
			Whites2012 = -70,
			ProcessVersion = "10.0",
		},
	},
	version = 0,
}
