presets/06-Whites_10.lrtemplate
s = {
	internalName = "06-Whites 10",
	title = "06-Whites 11 [10]",
	type = "Develop",
	value = {
		settings = {
			Whites2012 = 10,
			ProcessVersion = "10.0",
		},
	},
	version = 0,
}
