presets/06-Whites_90.lrtemplate
s = {
	internalName = "06-Whites 90",
	title = "06-Whites 19 [90]",
	type = "Develop",
	value = {
		settings = {
			Whites2012 = 90,
			ProcessVersion = "10.0",
		},
	},
	version = 0,
}
