presets/06-Whites_60.lrtemplate
s = {
	internalName = "06-Whites 60",
	title = "06-Whites 16 [60]",
	type = "Develop",
	value = {
		settings = {
			Whites2012 = 60,
			ProcessVersion = "10.0",
		},
	},
	version = 0,
}
