presets/06-Whites_100.lrtemplate
s = {
	internalName = "06-Whites 100",
	title = "06-Whites 20 [100]",
	type = "Develop",
	value = {
		settings = {
			Whites2012 = 100,
			ProcessVersion = "10.0",
		},
	},
	version = 0,
}
