presets/07-Blacks_-60.lrtemplate
s = {
	internalName = "07-Blacks -60",
	title = "07-Blacks 04 [-60]",
	type = "Develop",
	value = {
		settings = {
			Blacks2012 = -60,
			ProcessVersion = "10.0",
		},
	},
	version = 0,
}
