presets/07-Blacks_70.lrtemplate
s = {
	internalName = "07-Blacks 70",
	title = "07-Blacks 17 [70]",
	type = "Develop",
	value = {
		settings = {
			Blacks2012 = 70,
			ProcessVersion = "10.0",
		},
	},
	version = 0,
}
