presets/07-Blacks_-90.lrtemplate
s = {
	internalName = "07-Blacks -90",
	title = "07-Blacks 01 [-90]",
	type = "Develop",
	value = {
		settings = {
			Blacks2012 = -90,
			ProcessVersion = "10.0",
		},
	},
	version = 0,
}
