presets/07-Blacks_10.lrtemplate
s = {
	internalName = "07-Blacks 10",
	title = "07-Blacks 11 [10]",
	type = "Develop",
	value = {
		settings = {
			Blacks2012 = 10,
			ProcessVersion = "10.0",
		},
	},
	version = 0,
}
