presets/07-Blacks_-10.lrtemplate
s = {
	internalName = "07-Blacks -10",
	title = "07-Blacks 09 [-10]",
	type = "Develop",
	value = {
		settings = {
			Blacks2012 = -10,
			ProcessVersion = "10.0",
		},
	},
	version = 0,
}
