presets/07-Blacks_-20.lrtemplate
s = {
	internalName = "07-Blacks -20",
	title = "07-Blacks 08 [-20]",
	type = "Develop",
	value = {
		settings = {
			Blacks2012 = -20,
			ProcessVersion = "10.0",
		},
	},
	version = 0,
}
