presets/07-Blacks_40.lrtemplate
s = {
	internalName = "07-Blacks 40",
	title = "07-Blacks 14 [40]",
	type = "Develop",
	value = {
		settings = {
			Blacks2012 = 40,
			ProcessVersion = "10.0",
		},
	},
	version = 0,
}
