presets/07-Blacks_-80.lrtemplate
s = {
	internalName = "07-Blacks -80",
	title = "07-Blacks 02 [-80]",
	type = "Develop",
	value = {
		settings = {
			Blacks2012 = -80,
			ProcessVersion = "10.0",
		},
	},
	version = 0,
}
