presets/07-Blacks_-50.lrtemplate
s = {
	internalName = "07-Blacks -50",
	title = "07-Blacks 05 [-50]",
	type = "Develop",
	value = {
		settings = {
			Blacks2012 = -50,
			ProcessVersion = "10.0",
		},
	},
	version = 0,
}
