presets/07-Blacks_50.lrtemplate
s = {
	internalName = "07-Blacks 50",
	title = "07-Blacks 15 [50]",
	type = "Develop",
	value = {
		settings = {
			Blacks2012 = 50,
			ProcessVersion = "10.0",
		},
	},
	version = 0,
}
