presets/07-Blacks_-70.lrtemplate
s = {
	internalName = "07-Blacks -70",
	title = "07-Blacks 03 [-70]",
	type = "Develop",
	value = {
		settings = {
			Blacks2012 = -70,
			ProcessVersion = "10.0",
		},
	},
	version = 0,
}
