presets/08-Clarity_-70.lrtemplate
s = {
	internalName = "08-Clarity -70",
	title = "08-Clarity 03 [-70]",
	type = "Develop",
	value = {
		settings = {
			Clarity2012 = -70,
			ProcessVersion = "10.0",
		},
	},
	version = 0,
}
