presets/08-Clarity_-40.lrtemplate
s = {
	internalName = "08-Clarity -40",
	title = "08-Clarity 06 [-40]",
	type = "Develop",
	value = {
		settings = {
			Clarity2012 = -40,
			ProcessVersion = "10.0",
		},
	},
	version = 0,
}
