presets/08-Clarity_-30.lrtemplate
s = {
	internalName = "08-Clarity -30",
	title = "08-Clarity 07 [-30]",
	type = "Develop",
	value = {
		settings = {
			Clarity2012 = -30,
			ProcessVersion = "10.0",
		},
	},
	version = 0,
}
