presets/08-Clarity_-50.lrtemplate
s = {
	internalName = "08-Clarity -50",
	title = "08-Clarity 05 [-50]",
	type = "Develop",
	value = {
		settings = {
			Clarity2012 = -50,
			ProcessVersion = "10.0",
		},
	},
	version = 0,
}
