presets/08-Clarity_80.lrtemplate
s = {
	internalName = "08-Clarity 80",
	title = "08-Clarity 18 [80]",
	type = "Develop",
	value = {
		settings = {
			Clarity2012 = 80,
			ProcessVersion = "10.0",
		},
	},
	version = 0,
}
