presets/08-Clarity_70.lrtemplate
s = {
	internalName = "08-Clarity 70",
	title = "08-Clarity 17 [70]",
	type = "Develop",
	value = {
		settings = {
			Clarity2012 = 70,
			ProcessVersion = "10.0",
		},
	},
	version = 0,
}
