presets/08-Clarity_90.lrtemplate
s = {
	internalName = "08-Clarity 90",
	title = "08-Clarity 19 [90]",
	type = "Develop",
	value = {
		settings = {
			Clarity2012 = 90,
			ProcessVersion = "10.0",
		},
	},
	version = 0,
}
