presets/08-Clarity_-90.lrtemplate
s = {
	internalName = "08-Clarity -90",
	title = "08-Clarity 01 [-90]",
	type = "Develop",
	value = {
		settings = {
			Clarity2012 = -90,
			ProcessVersion = "10.0",
		},
	},
	version = 0,
}
