presets/09-Vibrance_30.lrtemplate
s = {
	internalName = "09-Vibrance 30",
	title = "09-Vibrance 13 [30]",
	type = "Develop",
	value = {
		settings = {
			Vibrance = 30,
			ProcessVersion = "10.0",
		},
	},
	version = 0,
}
