presets/09-Vibrance_-90.lrtemplate
s = {
	internalName = "09-Vibrance -90",
	title = "09-Vibrance 01 [-90]",
	type = "Develop",
	value = {
		settings = {
			Vibrance = -90,
			ProcessVersion = "10.0",
		},
	},
	version = 0,
}
