presets/09-Vibrance_10.lrtemplate
s = {
	internalName = "09-Vibrance 10",
	title = "09-Vibrance 11 [10]",
	type = "Develop",
	value = {
		settings = {
			Vibrance = 10,
			ProcessVersion = "10.0",
		},
	},
	version = 0,
}
