presets/09-Vibrance_-20.lrtemplate
s = {
	internalName = "09-Vibrance -20",
	title = "09-Vibrance 08 [-20]",
	type = "Develop",
	value = {
		settings = {
			Vibrance = -20,
			ProcessVersion = "10.0",
		},
	},
	version = 0,
}
