presets/09-Vibrance_-70.lrtemplate
s = {
	internalName = "09-Vibrance -70",
	title = "09-Vibrance 03 [-70]",
	type = "Develop",
	value = {
		settings = {
			Vibrance = -70,
			ProcessVersion = "10.0",
		},
	},
	version = 0,
}
