presets/09-Vibrance_-50.lrtemplate
s = {
	internalName = "09-Vibrance -50",
	title = "09-Vibrance 05 [-50]",
	type = "Develop",
	value = {
		settings = {
			Vibrance = -50,
			ProcessVersion = "10.0",
		},
	},
	version = 0,
}
