presets/09-Vibrance_-80.lrtemplate
s = {
	internalName = "09-Vibrance -80",
	title = "09-Vibrance 02 [-80]",
	type = "Develop",
	value = {
		settings = {
			Vibrance = -80,
			ProcessVersion = "10.0",
		},
	},
	version = 0,
}
