presets/09-Vibrance_-30.lrtemplate
s = {
	internalName = "09-Vibrance -30",
	title = "09-Vibrance 07 [-30]",
	type = "Develop",
	value = {
		settings = {
			Vibrance = -30,
			ProcessVersion = "10.0",
		},
	},
	version = 0,
}
