presets/09-Vibrance_50.lrtemplate
s = {
	internalName = "09-Vibrance 50",
	title = "09-Vibrance 15 [50]",
	type = "Develop",
	value = {
		settings = {
			Vibrance = 50,
			ProcessVersion = "10.0",
		},
	},
	version = 0,
}
