presets/09-Vibrance_-60.lrtemplate
s = {
	internalName = "09-Vibrance -60",
	title = "09-Vibrance 04 [-60]",
	type = "Develop",
	value = {
		settings = {
			Vibrance = -60,
			ProcessVersion = "10.0",
		},
	},
	version = 0,
}
