presets/10-Saturation_-70.lrtemplate
s = {
	internalName = "10-Saturation -70",
	title = "10-Saturation 03 [-70]",
	type = "Develop",
	value = {
		settings = {
			Saturation = -70,
			ProcessVersion = "10.0",
		},
	},
	version = 0,
}
