presets/10-Saturation_-60.lrtemplate
s = {
	internalName = "10-Saturation -60",
	title = "10-Saturation 04 [-60]",
	type = "Develop",
	value = {
		settings = {
			Saturation = -60,
			ProcessVersion = "10.0",
		},
	},
	version = 0,
}
