presets/10-Saturation_70.lrtemplate
s = {
	internalName = "10-Saturation 70",
	title = "10-Saturation 17 [70]",
	type = "Develop",
	value = {
		settings = {
			Saturation = 70,
			ProcessVersion = "10.0",
		},
	},
	version = 0,
}
