presets/10-Saturation_-30.lrtemplate
s = {
	internalName = "10-Saturation -30",
	title = "10-Saturation 07 [-30]",
	type = "Develop",
	value = {
		settings = {
			Saturation = -30,
			ProcessVersion = "10.0",
		},
	},
	version = 0,
}
