presets/10-Saturation_90.lrtemplate
s = {
	internalName = "10-Saturation 90",
	title = "10-Saturation 19 [90]",
	type = "Develop",
	value = {
		settings = {
			Saturation = 90,
			ProcessVersion = "10.0",
		},
	},
	version = 0,
}
