presets/10-Saturation_-40.lrtemplate
s = {
	internalName = "10-Saturation -40",
	title = "10-Saturation 06 [-40]",
	type = "Develop",
	value = {
		settings = {
			Saturation = -40,
			ProcessVersion = "10.0",
		},
	},
	version = 0,
}
