presets/10-Saturation_20.lrtemplate
s = {
	internalName = "10-Saturation 20",
	title = "10-Saturation 12 [20]",
	type = "Develop",
	value = {
		settings = {
			Saturation = 20,
			ProcessVersion = "10.0",
		},
	},
	version = 0,
}
