presets/10-Saturation_40.lrtemplate
s = {
	internalName = "10-Saturation 40",
	title = "10-Saturation 14 [40]",
	type = "Develop",
	value = {
		settings = {
			Saturation = 40,
			ProcessVersion = "10.0",
		},
	},
	version = 0,
}
